images/metromart.svg

<svg fill="none" height="11" viewBox="0 0 100 11" width="100" xmlns="http://www.w3.org/2000/svg"><path clip-rule="evenodd" d="m.00429956 9.67837c-.02817576.19723.08452794.32403.26767044.32403h1.26791c.12679 0 .23949-.11272.25358-.21133l.8171-5.3393h.04226l2.49355 5.53653c.04227.0845.1127.155.2395.155h.25358c.12679 0 .21132-.0705.23949-.155l2.46538-5.53653h.04226l.83119 5.3393c.02817.09861.14088.21133.26767.21133h1.28196c.1832 0 .2959-.1268.2536-.32403l-1.66236-9.467052c-.01408-.1127031-.09861-.211318-.25358-.211318h-.2254c-.12679 0-.19723.0563513-.23949.140879l-3.09934 6.649471h-.04226l-3.09933-6.649471c-.04227-.0845277-.12679-.140879-.2395-.140879h-.2254c-.15497 0-.2395.0986149-.25358.211318zm14.63730044.05635c0 .14088.1127.26768.2677.26768h5.7337c.155 0 .2677-.1268.2677-.26768v-1.15521c0-.14088-.1127-.26767-.2677-.26767h-4.17v-2.46537h3.4797c.1409 0 .2677-.11271.2677-.26767v-1.1693c0-.14088-.1268-.26767-.2677-.26767h-3.4797v-2.31041h4.17c.155 0 .2677-.12679.2677-.26767v-1.155202c0-.140879-.1127-.267669-.2677-.267669h-5.7337c-.155 0-.2677.12679-.2677.267669zm11.4675 0c0 .14088.1268.26768.2677.26768h1.3102c.1408 0 .2676-.1268.2676-.26768v-7.9033h2.1555c.1549 0 .2676-.12679.2676-.26767v-1.155202c0-.140879-.1127-.267669-.2676-.267669h-6.1564c-.155 0-.2677.12679-.2677.267669v1.155202c0 .14088.1127.26767.2677.26767h2.1554zm7.5934 0c0 .14088.1127.26768.2677.26768h1.296c.1409 0 .2677-.1268.2677-.26768v-3.59241h1.5638l1.8736 3.73329c.0282.05635.0987.1268.2255.1268h1.4792c.2395 0 .3381-.22542.2395-.40856l-1.9301-3.57832c1.2257-.49308 2.085-1.54967 2.085-2.84575 0-1.67646-1.3806-3.028891-3.0711-3.028891h-4.0291c-.155 0-.2677.12679-.2677.267669zm1.8455-5.09981v-2.80349h2.2963c.7467 0 1.3947.61987 1.3947 1.36653 0 .78892-.648 1.43696-1.3947 1.43696zm8.6359.45081c0 2.81757 2.2399 5.05758 5.0575 5.05758s5.0716-2.24001 5.0716-5.05758-2.254-5.08572-5.0716-5.08572-5.0575 2.26815-5.0575 5.08572zm1.8314 0c0-1.77507 1.451-3.2543 3.2261-3.2543s3.2402 1.47923 3.2402 3.2543-1.4651 3.22612-3.2402 3.22612-3.2261-1.45105-3.2261-3.22612zm11.2562 4.59265c-.0282.19723.0845.32403.2677.32403h1.2679c.1268 0 .2395-.11272.2535-.21133l.8171-5.3393h.0423l2.4936 5.53653c.0422.0845.1127.155.2395.155h.2535c.1268 0 .2114-.0705.2395-.155l2.4654-5.53653h.0423l.8311 5.3393c.0282.09861.1409.21133.2677.21133h1.282c.1832 0 .2959-.1268.2536-.32403l-1.6624-9.467052c-.0141-.1127031-.0986-.211318-.2536-.211318h-.2254c-.1267 0-.1972.0563513-.2395.140879l-3.0993 6.649471h-.0422l-3.0994-6.649471c-.0422-.0845277-.1268-.140879-.2395-.140879h-.2254c-.1549 0-.2395.0986149-.2536.211318zm13.7075.32403h1.2256c.2254 0 .3522-.14089.4086-.28177l.6903-1.52149h4.2122l.6904 1.52149c.0986.19723.1972.28177.4085.28177h1.2256c.2114 0 .3241-.18316.2395-.3663l-4.339-9.481134c-.0423-.084527-.0986-.154966-.2395-.154966h-.1409c-.1268 0-.1972.070439-.2395.154966l-4.3813 9.481134c-.0845.18314.0282.3663.2395.3663zm3.0148-3.36701 1.3806-3.09934h.0423l1.4087 3.09934zm9.0867 3.09933c0 .14088.1127.26768.2676.26768h1.2961c.1409 0 .2677-.1268.2677-.26768v-3.59241h1.5637l1.8737 3.73329c.0282.05635.0986.1268.2254.1268h1.4793c.2394 0 .3381-.22542.2395-.40856l-1.9301-3.57832c1.2257-.49308 2.085-1.54967 2.085-2.84575 0-1.67646-1.3806-3.028891-3.0711-3.028891h-4.0292c-.1549 0-.2676.12679-.2676.267669zm1.8455-5.09981v-2.80349h2.2963c.7467 0 1.3947.61987 1.3947 1.36653 0 .78892-.648 1.43696-1.3947 1.43696zm10.8054 5.09981c0 .14088.1268.26768.2676.26768h1.3102c.1409 0 .2677-.1268.2677-.26768v-7.9033h2.1554c.155 0 .2677-.12679.2677-.26767v-1.155202c0-.140879-.1127-.267669-.2677-.267669h-6.1564c-.1549 0-.2676.12679-.2676.267669v1.155202c0 .14088.1127.26767.2676.26767h2.1555z" fill="#fff" fill-rule="evenodd"/></svg>

<svg width="100" height="11" viewBox="0 0 100 11" fill="none" xmlns="http://www.w3.org/2000/svg">
<path fill-rule="evenodd" clip-rule="evenodd" d="M0.00429956 9.67837C-0.0238762 9.8756 0.0888275 10.0024 0.27197 10.0024H1.53988C1.66667 10.0024 1.77937 9.88968 1.79346 9.79107L2.61056 4.45177H2.65282L5.14637 9.9883C5.18864 10.0728 5.25907 10.1433 5.38587 10.1433H5.63945C5.76624 10.1433 5.85077 10.0728 5.87894 9.9883L8.34432 4.45177H8.38658L9.21777 9.79107C9.24594 9.88968 9.35865 10.0024 9.48544 10.0024H10.7674C10.9506 10.0024 11.0633 9.8756 11.021 9.67837L9.35864 0.211318C9.34456 0.0986149 9.26003 0 9.10506 0H8.87966C8.75287 0 8.68243 0.0563513 8.64017 0.140879L5.54083 6.79035H5.49857L2.39924 0.140879C2.35697 0.0563513 2.27245 0 2.15974 0H1.93434C1.77937 0 1.69484 0.0986149 1.68076 0.211318L0.00429956 9.67837ZM14.6416 9.73472C14.6416 9.8756 14.7543 10.0024 14.9093 10.0024H20.643C20.798 10.0024 20.9107 9.8756 20.9107 9.73472V8.57951C20.9107 8.43863 20.798 8.31184 20.643 8.31184H16.473V5.84647H19.9527C20.0936 5.84647 20.2204 5.73376 20.2204 5.5788V4.4095C20.2204 4.26862 20.0936 4.14183 19.9527 4.14183H16.473V1.83142H20.643C20.798 1.83142 20.9107 1.70463 20.9107 1.56375V0.408548C20.9107 0.267669 20.798 0.140879 20.643 0.140879H14.9093C14.7543 0.140879 14.6416 0.267669 14.6416 0.408548V9.73472ZM26.1091 9.73472C26.1091 9.8756 26.2359 10.0024 26.3768 10.0024H27.687C27.8278 10.0024 27.9546 9.8756 27.9546 9.73472V1.83142H30.1101C30.265 1.83142 30.3777 1.70463 30.3777 1.56375V0.408548C30.3777 0.267669 30.265 0.140879 30.1101 0.140879H23.9537C23.7987 0.140879 23.686 0.267669 23.686 0.408548V1.56375C23.686 1.70463 23.7987 1.83142 23.9537 1.83142H26.1091V9.73472ZM33.7025 9.73472C33.7025 9.8756 33.8152 10.0024 33.9702 10.0024H35.2662C35.4071 10.0024 35.5339 9.8756 35.5339 9.73472V6.14231H37.0977L38.9713 9.8756C38.9995 9.93195 39.07 10.0024 39.1968 10.0024H40.676C40.9155 10.0024 41.0141 9.77698 40.9155 9.59384L38.9854 6.01552C40.2111 5.52244 41.0704 4.46585 41.0704 3.16977C41.0704 1.49331 39.6898 0.140879 37.9993 0.140879H33.9702C33.8152 0.140879 33.7025 0.267669 33.7025 0.408548V9.73472ZM35.548 4.63491V1.83142H37.8443C38.591 1.83142 39.239 2.45129 39.239 3.19795C39.239 3.98687 38.591 4.63491 37.8443 4.63491H35.548ZM44.1839 5.08572C44.1839 7.90329 46.4238 10.1433 49.2414 10.1433C52.059 10.1433 54.313 7.90329 54.313 5.08572C54.313 2.26815 52.059 0 49.2414 0C46.4238 0 44.1839 2.26815 44.1839 5.08572ZM46.0153 5.08572C46.0153 3.31065 47.4663 1.83142 49.2414 1.83142C51.0165 1.83142 52.4816 3.31065 52.4816 5.08572C52.4816 6.86079 51.0165 8.31184 49.2414 8.31184C47.4663 8.31184 46.0153 6.86079 46.0153 5.08572ZM57.2715 9.67837C57.2433 9.8756 57.356 10.0024 57.5392 10.0024H58.8071C58.9339 10.0024 59.0466 9.88968 59.0606 9.79107L59.8777 4.45177H59.92L62.4136 9.9883C62.4558 10.0728 62.5263 10.1433 62.6531 10.1433H62.9066C63.0334 10.1433 63.118 10.0728 63.1461 9.9883L65.6115 4.45177H65.6538L66.4849 9.79107C66.5131 9.88968 66.6258 10.0024 66.7526 10.0024H68.0346C68.2178 10.0024 68.3305 9.8756 68.2882 9.67837L66.6258 0.211318C66.6117 0.0986149 66.5272 0 66.3722 0H66.1468C66.0201 0 65.9496 0.0563513 65.9073 0.140879L62.808 6.79035H62.7658L59.6664 0.140879C59.6242 0.0563513 59.5396 0 59.4269 0H59.2015C59.0466 0 58.962 0.0986149 58.9479 0.211318L57.2715 9.67837ZM70.979 10.0024H72.2046C72.43 10.0024 72.5568 9.86151 72.6132 9.72063L73.3035 8.19914H77.5157L78.2061 9.72063C78.3047 9.91786 78.4033 10.0024 78.6146 10.0024H79.8402C80.0516 10.0024 80.1643 9.81924 80.0797 9.6361L75.7407 0.154966C75.6984 0.070439 75.6421 0 75.5012 0H75.3603C75.2335 0 75.1631 0.070439 75.1208 0.154966L70.7395 9.6361C70.655 9.81924 70.7677 10.0024 70.979 10.0024ZM73.9938 6.63539L75.3744 3.53605H75.4167L76.8254 6.63539H73.9938ZM83.0805 9.73472C83.0805 9.8756 83.1932 10.0024 83.3481 10.0024H84.6442C84.7851 10.0024 84.9119 9.8756 84.9119 9.73472V6.14231H86.4756L88.3493 9.8756C88.3775 9.93195 88.4479 10.0024 88.5747 10.0024H90.054C90.2934 10.0024 90.3921 9.77698 90.2935 9.59384L88.3634 6.01552C89.5891 5.52244 90.4484 4.46585 90.4484 3.16977C90.4484 1.49331 89.0678 0.140879 87.3773 0.140879H83.3481C83.1932 0.140879 83.0805 0.267669 83.0805 0.408548V9.73472ZM84.926 4.63491V1.83142H87.2223C87.969 1.83142 88.617 2.45129 88.617 3.19795C88.617 3.98687 87.969 4.63491 87.2223 4.63491H84.926ZM95.7314 9.73472C95.7314 9.8756 95.8582 10.0024 95.999 10.0024H97.3092C97.4501 10.0024 97.5769 9.8756 97.5769 9.73472V1.83142H99.7323C99.8873 1.83142 100 1.70463 100 1.56375V0.408548C100 0.267669 99.8873 0.140879 99.7323 0.140879H93.5759C93.421 0.140879 93.3083 0.267669 93.3083 0.408548V1.56375C93.3083 1.70463 93.421 1.83142 93.5759 1.83142H95.7314V9.73472Z" fill="white"/>
</svg>
